X: 1825
T: Red River Waltz
B: australian traditional tunes wiki
M:3/4
L:1/8
R: Waltz
Q: 1/4=100
K:D
V:1 
fg|"D"a4-af|a4b2|a3ba2|f3e fe|"Bm"d3e fe|"G"d4B2|"D"A6|A4FA|
"Bm"B3A Bc|"G"d3B cd|"Em"e3d cB|"D"A2F2A2|"G"B3AB2|"A"c3de2|"D"d6|d4fg||
"D"a4-af|a4b2|a3ba2|f3e fe|d3e fe|"Bm"d4B2|"D"A6|A4FA|
"Bm"B3A Bc|d3B cd|"G"b3a fd|"D"A2F2A2|"G"B3AB2|"A"c3de2|"D"d6|d4z2||
% abcbook-tune_id 6342d53ad7ffc3ffa08a01c8


% abcbook-boost 0
% abcbook-tablature 
% abcbook-transpose 
% abcbook-lastupdated 1665324386270
% abcbook-soundfonts 
% abcbook-repeats 1
% NFF Book 2010

